exported-svg/shield-off.svg

<svg height="24" viewBox="0 0 24 24" width="24" xmlns="http://www.w3.org/2000/svg"><path d="m16.9271786 17.6342854-12.32420078-12.32420079-.10297782.03808768v6.65182771c0 2.4527758 1.42712016 4.771846 3.8292523 6.8737117.85327768.7466179 1.7695557 1.4109194 2.6857472 1.9835391.3203879.2002425.6174804.3744987.8834084.5217088.0356466.019733.0689066.0379828.0996893.0547377 1.8335075-.9987884 3.4970312-2.2812333 4.9290813-3.799412zm1.0441419-.3700717c.0017061.0016821.0033976.0033737.0050747.0050747l5.3771582 5.3771582c.1952621.1952622.1952621.5118446 0 .7071068-.1952622.1952621-.5118446.1952621-.7071068 0l-5.0118744-5.0118744c-1.563028 1.6523793-3.3874843 3.0379641-5.4012343 4.1005353-.1425997.0752438-.3127329.0771052-.4569447.0049993-.0685875-.0342938-.1919446-.0990563-.3623011-.1933607-.280947-.1555242-.5932295-.3386899-.9290916-.5486037-.95880845-.5992553-1.91753048-1.2943288-2.8142528-2.0789609-2.59786786-2.2731343-4.1707477-4.8290641-4.1707477-7.6262883v-7c0-.20857101.12945599-.39515368.32464946-.46824376l-3.17820285-3.17820285c-.19526215-.19526215-.19526215-.51184463 0-.70710678s.51184463-.19526215.70710678 0l3.72246106 3.72246106c.0052778.00505013.01045093.01022236.01551617.01551617l12.87978998 12.87978996zm-5.971691-14.7303524-2.98471773 1.1145465c-.25869448.09660111-.54671847-.03480154-.64331957-.29349603-.09660111-.25869448.03480154-.54671847.29349603-.64331957l3.15999997-1.18c.1130276-.0422065.2375046-.04212012.3504735.00024321l8 3c.1951519.07318195.3244383.25974231.3244383.46816459v7.0032936c-.0048027.7274306-.1168287 1.4501793-.3324746 2.1449275-.0818603.26373-.3620166.4111646-.6257465.3293043-.26373-.0818603-.4111646-.3620166-.3293043-.6257465.1865046-.6008634.2833919-1.2259434.2875254-1.8517789v-6.65349977z"/></svg>

<?xml version="1.0" encoding="UTF-8"?>
<svg width="24px" height="24px" viewBox="0 0 24 24" version="1.1" xmlns="http://www.w3.org/2000/svg" xmlns:xlink="http://www.w3.org/1999/xlink">
    <!-- Generator: Sketch 55.2 (78181) - https://sketchapp.com -->
    <title>shield-off</title>
    <desc>Created with Sketch.</desc>
    <g id="shield-off" stroke="none" stroke-width="1" fill="none" fill-rule="evenodd">
        <path d="M16.9271786,17.6342854 L4.60297782,5.31008461 L4.5,5.34817229 L4.5,12 C4.5,14.4527758 5.92712016,16.771846 8.3292523,18.8737117 C9.18252998,19.6203296 10.098808,20.2846311 11.0149995,20.8572508 C11.3353874,21.0574933 11.6324799,21.2317495 11.8984079,21.3789596 C11.9340545,21.3986926 11.9673145,21.4169424 11.9980972,21.4336973 C13.8316047,20.4349089 15.4951284,19.152464 16.9271785,17.6342853 Z M17.9713205,17.2642137 C17.9730266,17.2658958 17.9747181,17.2675874 17.9763952,17.2692884 L23.3535534,22.6464466 C23.5488155,22.8417088 23.5488155,23.1582912 23.3535534,23.3535534 C23.1582912,23.5488155 22.8417088,23.5488155 22.6464466,23.3535534 L17.6345722,18.341679 C16.0715442,19.9940583 14.2470879,21.3796431 12.2333379,22.4422143 C12.0907382,22.5174581 11.920605,22.5193195 11.7763932,22.4472136 C11.7078057,22.4129198 11.5844486,22.3481573 11.4140921,22.2538529 C11.1331451,22.0983287 10.8208626,21.915163 10.4850005,21.7052492 C9.52619205,21.1059939 8.56747002,20.4109204 7.6707477,19.6262883 C5.07287984,17.353154 3.5,14.7972242 3.5,12 L3.5,5 C3.5,4.79142899 3.62945599,4.60484632 3.82464946,4.53175624 L0.646446609,1.35355339 C0.451184464,1.15829124 0.451184464,0.841708755 0.646446609,0.646446609 C0.841708755,0.451184464 1.15829124,0.451184464 1.35355339,0.646446609 L5.07601445,4.36890767 C5.08129225,4.3739578 5.08646538,4.37913003 5.09153062,4.38442384 L17.9713206,17.2642138 Z M11.9996295,2.5338613 L9.01491177,3.6484078 C8.75621729,3.74500891 8.4681933,3.61360626 8.3715922,3.35491177 C8.27499109,3.09621729 8.40639374,2.8081933 8.66508823,2.7115922 L11.8250882,1.5315922 C11.9381158,1.4893857 12.0625928,1.48947208 12.1755617,1.53183541 L20.1755617,4.53183541 C20.3707136,4.60501736 20.5,4.79157772 20.5,5 L20.5,12.0032936 C20.4951973,12.7307242 20.3831713,13.4534729 20.1675254,14.1482211 C20.0856651,14.4119511 19.8055088,14.5593857 19.5417789,14.4775254 C19.2780489,14.3956651 19.1306143,14.1155088 19.2124746,13.8517789 C19.3989792,13.2509155 19.4958665,12.6258355 19.5,12 L19.5,5.34650023 L11.9996295,2.5338613 Z" id="Combined-Shape" fill="#000000" fill-rule="nonzero"></path>
    </g>
</svg>
